X:1
T:Deus, Deus meus
T:Peter Griesbacher
T:Deus, Deus meus
T:Copyright © 
T:Copyright © 
T:Copyright © 
T:Copyright © 
T:Copyright © 
T:Copyright © 
T:Copyright © 
C:Peter Griesbacher
Z:Copyright ©
%%score [ 1 2 3 4 ]
L:1/8
Q:1/4=70
M:4/4
K:F
V:1 treble nm="SOPRANO" snm="S."
V:2 treble nm="ALTO" snm="A."
V:3 treble-8 transpose=-12 nm="TENOR" snm="T."
V:4 bass nm="BASS" snm="B."
V:1
!pp! z8 | F6 F2 | F4 C4 |!p! z8 | A6 A2 | A4 F4 | z4 z2!<(! F2!<)! | c6 B2 | A2 G2!>(! (F2 EF | %9
w: |De- us|me- us,||De- us|me- us,|ad|te de|lu- ce vi- * *|
 A3) G!>)!!p! G4 |!<(! (E4 F2)!<)! G2 | A6 A2 | A4 E4 | z8 |!mf! ^c6 c2 | ^c4 A4 | z8 | %17
w: * gi- lo,|De- * us,|De- us|me- us,||De- us|me- us,||
 z4!<(! A4!<)! | d6 c2 | (B4 A2) G2 | (F2 EF B3) A |!f!!>(! A8!>)! | (A4 =B2) ^c2 | d6 d2 | d4 A4 | %25
w: ad|te de|lu- * ce|vi- * * * gi-|lo,|De- * us,|De- us|me- us,|
!ff! z8 | f6 f2 | f4 d4 | z2 F2 d4- | d2 G2 B2 G2 | (F4 G2 A2 | B2 AB!>(! d3) c!>)! | c4 z4 || %33
w: |De- us|me- us,|ad te|_ de lu- ce|vi- * *|* * * * gi-|lo:|
[M:3/4][Q:1/4=120] z6 | z6 | z6 | z6 | z6 |!p! z2 C2 D2 | E3 F G2 | A2 G2 ^F2 | (G2 c2) =B2 | %42
w: |||||et in|no- mi- ne|tu- o le-|va- * bo|
 A4 G2 | A6 | G4 z2 | z6 | z2!<(! C2 D2 | E3 F!<)! G2 | A6 | F6 |!mf! z2!<(! F2 G2 | A3 B!<)! c2 | %52
w: ma- nus|me-|as,||et in|no- mi- ne|tu-|o,|et in|no- mi- ne|
 d6 | ^c4 A2 | d4 c2 | B4!>(! A2!>)! | B6 | A6 | z6 | z2 e2 d2 | c2 G2 z2 | z2 f2 e2 | (d6 | c6) | %64
w: tu-|o le-|va- bo|ma- nus|me-|as,||Al- le-|lu- ia,|al- le-|lu-||
 c6- | c6 | z6 | z2 d2 c2 | (B2 A2 c2) | c6 | z2 B2 A2 | (d6 | c6) | c6- | c6- | c4 z2 | %76
w: ia,|_||al- le-|lu- * *|ia,|al- le-|lu-||ia,|_||
!f! z2 A2 B2 | c3 d e2 | f6- | f2 e2 c2 | d4 c2 | B4 A2 | G6 | G6 | z2!>(! A2 G2 | F2!>)! D2 z2 | %86
w: et in|no- mi- ne|tu-|* o, le-|va- bo|ma- nus|me-|as,|al- le-|lu- ia,|
 z2 d2 c2 | (B6 | A6) | A6 | z2 c2 B2 | (A2 f2) e2 | z2 G2 ^F2 | (G2 d2 c2) | B4 z2 | z2 d2 A2 | %96
w: al- le-|lu-||ia,|al- le-|lu- * ia,|al- le|lu- * *|ia,|al- le-|
 (B4 A2 | G4 F2) | F4 z2 | z2 A2 B2 | c3 d e2 | f6- | f2 e2 d2 | (c2 f2) e2 | d4 c2 | (d4 e2) | %106
w: lu- *||ia,|et in|no- mi- ne|tu-|* o le-|va- * bo|ma- nus|me- *|
 e6 | z6 | z2 e2 d2 | c2 G2 z2 | z2 f2 e2 | d6 | d2!ff! g2 f2 | (e3 d e2) | f6- | f2 e2 d2 | (c6- | %117
w: as,||al- le-|lu- ia,|al- le-|lu-|ia, al- le-|lu- * *|ia,|_ al- le-|lu-|
 c2 d2 c2 | B3 A G2) | F6- | F2 c2 B2 | (d6 | c6) | c6- | c2 z2 z2 |] %125
w: ||ia,|_ al- le-|lu-||ia.|_|
V:2
!pp! z8 | C6 C2 | C4 A,4 |!p! z8 | F6 F2 | F4 C4 | z4 z2!<(! F2!<)! | A2 G2 (F4- | %8
w: |De- us|me- us,||De- us|me- us,|ad|te de lu-|
 F2 E2!>(! D2) D2 | F3 F!>)! E4 |!p! z8 | E6 E2 | E4 ^C4 | z8 |!mf! A6 A2 | A4 E4 | %16
w: * * * ce|vi- gi- lo,||De- us|me- us,||De- us|me- us,|
 z4 z2!<(! ^C2!<)! | A6 G2 | F4 ^F4 | G3 =F E2 E2 | (D4 G2) D2 |!>(! F3 E!>)! E4 |!f! z8 | F6 F2 | %24
w: ad|te de|lu- ce|vi- gi- lo, de|lu- * ce|vi- gi- lo,||De- us|
 F4!ff! F4 | (F4 G2) A2 | B6 B2 | B4 F4 | z2 D2 B4- | B2 D2 G2 _E2 | (C4 D2 _E2 | %31
w: me- us,|De- * us,|De- us|me- us,|ad te|_ de lu- ce|vi- * *|
 F4!>(! B3) B!>)! | A4 z4 ||[M:3/4] z6 | z6 | z6 | z6 | z6 |!p! z2 C2 C2 | C3 D E2 | F2 E2 ^D2 | %41
w: * * gi-|lo:||||||et in|no- mi- ne|tu- o le-|
 E4 D2 | E2 ^F2 (G2- | G2 ^FE F2) | G4 z2 | z6 | z2!<(! C2 C2 | C3 D!<)! E2 | F6 | C6 | %50
w: va- bo|ma- nus me-||as,||et in|no- mi- ne|tu-|o,|
!mf! z2!<(! D2 E2 | F3 G!<)! A2 | (B3 A GF | A2) E2 A2 | (^F2 G2) A2 | G2 D2!>(! F2- | %56
w: et in|no- mi- ne|tu- * * *|* o le-|va- * bo|ma- nus me-|
 FD G2!>)! F2 | E6 | z6 | z2 G2 F2 | (E3 D E2) | F6- | F2 G2 F2 | (E3 D E2) | F2!f! A2 G2 | %65
w: |as,||Al- le-|lu- * *|ia,|_ al- le-|lu- * *|ia, al- le-|
 (F2 A2 G2) | F2 B2 A2 | G2 D2 z2 | z2 A2 G2 | F2 C2 z2 | z2 z2 AA | (A2 G2 F2) | E2!f! C2 D2 | %73
w: lu- * *|ia, al- le-|lu- ia,|al- le-|lu- ia,|al- le-|lu- * *|ia, et in|
 E3 F G2 | A2 F2 C2 | (C2 F2) E2 | A,2 F2 F2 | E2 A2 G2 | (F3 G A2) | G4 z2 | z2 B,2 C2 | D3 E F2 | %82
w: no- mi- ne|tu- o le-|va- * bo|ma- nus me-|as, al- le-|lu- * *|ia,|et in|no- mi- ne|
 G2 C2 F2 | (F2 E2) D2 | E4 A,2 | D6 | D6- | D2 G2 F2 | E2 ^C2 z2 | z2 A2 G2 | (F2 A,2 B,2) | %91
w: tu- o le-|va- * bo|ma- nus|me-|as,|_ al- le-|lu- ia,|al- le-|lu- * *|
 C2 A2 G2 | (F2 G2 _E2) | D2 z2 z2 | z2 B2 A2 | G2 D2 z2 | z2 E2 F2 | G3 A B2 | c2 F2 B2 | A4 D2 | %100
w: ia, al- le-|lu- * *|ia,|al- le-|lu- ia,|et in|no- mi- ne|tu- o le-|va- bo|
 (C2 B2) G2 | (F3 G A2) | G4 E2 | (F2 A2) G2 | F2 G2 (A2- | A2 GF G2) | A6 | z6 | z2 G2 F2 | %109
w: ma- * nus|me- * *|as, le-|va- * bo|ma- nus me-||as,||al- le-|
 (E3 D E2) | F2 A2 G2 | (F2 B2 A2) | G6- |!ff! G2 A2 G2 | F6 | F6- | F2 B2 A2 | (G2 FE F2- | %118
w: lu- * *|ia, al- le|lu- * *|ia,|_ al- le-|lu-|ia,|_ al- le-|lu- * * *|
 FD E4) | F2 E2 D2 | (C4 F2) | F6- | F6- | F6- | F2 z2 z2 |] %125
w: |ia, al- le-|lu- *|ia.|_|||
V:3
!pp! z8 | A6 A2 | A4 F4 |!<(! (F4 A2)!<)!!p! B2 | c6 c2 | c4 A4 | z2!<(! A2 d2!<)! _d2 | %7
w: |De- us|me- us,|De- * us,|De- us|me- us,|ad te de|
 (c2 B2) A2 d2 | (c3 B!>(! A2) A2 | =B3 B!>)! c4 |!p! z8 | ^c6 c2 | ^c4!mf! A4 | %13
w: lu- * ce, de|lu- * * ce|vi- gi- lo,||De- us|me- us,|
!<(! (A4 ^c2)!<)! d2 |!mf! e6 e2 | e4 ^c4 | z2!<(! ^c2!<)! (e4- | e2 d2 ^c2) c2 | d4 A2 A2 | %19
w: De- * us,|De- us|me- us,|ad te|_ _ _ de|lu- ce, de|
 (B2 d4) ^c2 | d8- |!>(! d3 ^c!>)! c4 |!f! z8 | A6 A2 | A4 A4 |!ff! z8 | d6 d2 | d4 B2 F2 | d6 F2 | %29
w: lu- * ce|vi-|* gi- lo,||De- us|me- us,||De- us|me- us, ad|te de|
 B4 B2 (B2- | B2 A2 B2 c2 | d4)!>(! e4!>)! | f4!p! F2 G2 ||[M:3/4] A3 B c2 | d2 c2 =B2 | %35
w: lu- ce vi-||* gi-|lo et in|no- mi- ne|tu- o le-|
 (c2 f2) e2 | d4 c2 | d6 | c6 | z6 | z6 | z6 | z6 | z6 | z2 G2 A2 | =B3 c d2 | e6 | G6 | %48
w: va- * bo|ma- nus|me-|as,||||||et in|no- mi- ne|tu-|o|
!mf! z2!<(! F2 G2 | A3 B!<)! c2 | d6 | c4 c2 | B3 c d2 | e2 ^c2 A2 | A4 d2 | d4!>(! c2!>)! | d6 | %57
w: et in|no- mi- ne|tu-|o, in|no- mi- ne|tu- o le-|va- bo|ma- nus|me-|
 ^c6 | z2 d2 c2 | (=B3 A B2) | c2 c2 _B2 | (A3 G A2) | B2 B2 A2 | (G3 F G2) | (A4 B2 | %65
w: as,|Al- le-|lu- * *|ia, al- le-|lu- * *|ia, al- le-|lu- * *|ia, _|
 c2)!f! f2 e2 | d6 | d6- | d2!f! z2 c2 | (c2 f2) e2 | d4 c2 | (c2 =BA B2) | c2!f! E2 F2 | G3 A B2 | %74
w: _ al- le-|lu-|ia,|_ le-|va- * bo|ma- nus|me- * * *|as, et in|no- mi- ne|
 c2 F2 G2 | A3 B c2 | d2 c2 B2 | (G2 c2) B2 | (A2 d2) c2 | B4 A2 | z6 | z2 z2 AB | c2 G2 A=B | %83
w: tu- o, in|no- mi- ne|tu- o le-|va- * bo|ma- * nus|me- as,||al- le-|lu- ia, al- le-|
 (c3 G d2- | d2) ^c4 | z2 d2 c2 | (B4 A2 | G4 d2) | ^c2 A2 =B2 | ^c3 d e2 | (f6- | f2 c2) c2 | %92
w: lu- * *|* ia,|al- le-|lu- *||ia, et in|no- mi- ne|tu-|* * o,|
 z2 B2 c2 | d3 e f2 | g2 d2 ^c2 | d4 f2 | B4 c2 | (d4 _d2) | c2 c2 d2 | e3 f g2 | f2 e2 B2 | %101
w: et in|no- mi- ne|tu- o le-|va- bo|ma- nus|me- *|as, et in|no- mi- ne|tu- o le-|
 (A2 d2) c2 | B4 B2 | (c4 ^c2 | d3 e fe | d6) | ^c6 | z2 d2 c2 | (=B3 A B2) | c6 | c2 c2 ^c2 | %111
w: va _ bo|ma- nus|me- *|||as,|al- le-|lu- * *|ia,|al- le- lu-|
 d2!ff! g2 f2 | (e2 d2 _d2) | c2 c2 B2 | (A3 G AB | c4 B2) | A2 d2 c2 | (B4 A2) | G2 c2 B2 | %119
w: ia, al- le-|lu- * *|ia, al- le-|lu- * * *||ia, al- le-|lu- *|ia, al- le-|
 (A4 B2 | c2) F4 | F2 d2 B2 | (B2 A2 G2) | A6- | A2 z2 z2 |] %125
w: lu- *||ia, al- le-|lu- * *|ia.|_|
V:4
!pp!!<(! (C,4 D,2)!<)! E,2 | F,6 F,2 | F,4 F,,4 |!p! z8 | F,6 F,2 | F,4 F,,2!<(! F,,2!<)! | F,8- | %7
w: De- * us,|De- us|me- us,||De- us|me- us, ad|te,|
 F,6 B,,2 | C,2 C,2!>(! D,2 D,2 | G,,3 G,,!>)! C,4 |!p! z8 | A,,6 A,,2 | A,,4 A,,4 | z8 | %14
w: _ ad|te de lu- ce|vi- gi- lo,||De- us|me- us,||
!mf! A,6 A,2 | A,4 A,2!<(! A,,2!<)! | A,6 G,2 | (F,4 E,2) A,,2 | (B,,4 D,4 | G,4 A,4 | %20
w: De- us|me- us, ad|te de|lu- * ce|vi- *||
 B,3 A, G,2) G,2 |!>(! A,8!>)! |!f! z8 | D,6 D,2 | D,4 D,4 |!ff! z8 | B,,6 B,,2 | B,,4 B,,2 B,,2 | %28
w: * * * gi-|lo,||De- us|me- us,||De- us|me- us, ad|
 B,6 D,2 | G,4 _E,4 | F,6 F,2 |!>(! F,8-!>)! | F,4!p! F,2 F,2 ||[M:3/4] F,3 G, A,2 | B,2 A,2 ^G,2 | %35
w: te de|lu- ce|vi- gi-|lo|_ et in|no- mi- ne|tu- o le-|
 A,4 G,2 | A,2 =B,2 (C2- | C2 =B,A, B,2) | C6 | z6 | z6 | z6 | z6 | z6 | z2 G,2 G,2 | G,3 A, =B,2 | %46
w: va- bo|ma- nus me-||as,||||||et in|no- mi- ne|
 C6 | C,6 |!mf! z2!<(! F,2 F,2 | F,3 G,!<)! A,2 | B,6 | A,4 A,2 | G,3 A, B,2 | A,2 A,,2 A,2 | %54
w: tu-|o|et in|no- mi- ne|tu-|o, in|no- mi- ne|tu- o le-|
 (D,2 E,2) ^F,2 | G,4!>(! A,2 | (G,4!>)! G,,2) | A,,2 A,2 G,2 | (F,6 | G,6) | C,6 | z2 D,2 C,2 | %62
w: va- * bo|ma- nus|me- *|as. Al- le-|lu-||ia,|al- le-|
 (B,,6 | C,6) | F,,2!f! F,2 G,2 | A,3 B, C2 | (D4 C2) | B,4 A,2 | (G,2 C2) B,2 | A,4 G,2 | (F,6- | %71
w: lu-||ia, et in|no- mi- ne|tu- *|o le-|va- * bo|ma- nus|me-|
 F,2 G,4) | C,6- | C,2 C2 B,2 | (A,3 G, E,2) | F,4 A,G, | (F,3 E, D,2) | C,2 C,2 ^C,2 | %78
w: |as,|_ al- le-|lu- * *|ia, al- le-|lu- * *|ia, et in|
 D,3 E, F,2 | G,2 C,2 A,2 | B,4 A,2 | G,4 F,2 | (E,4 D,2) | C,2 C2 B,2 | A,2 A,,2 z2 | z2 B,2 A,2 | %86
w: no- mi- ne|tu- o le-|va- bo|ma- nus|me- *|as, al- le-|lu- ia,|al- le-|
 (G,6- | G,6 | A,6) | A,6 | z2 F,2 G,2 | A,3 B, C2 | (D4 A,2 | B,4 A,2) | G,2 G,2 A,2 | B,3 C D2 | %96
w: lu-|||ia,|et in|no- mi- ne|tu- *||o, et in|no- mi- ne|
 (G,4 A,2 | B,2) B,,2 G,2 | A,4 G,2 | (C,2 C2) B,2 | A,2 G,2 C,2 | D,3 E, F,2 | G,2 C,2 G,2 | %103
w: tu- *|* o le-|va- bo|ma- * nus|me- as, in|no- mi- ne|tu- o le-|
 A,4 A,2 | B,4 A,2 | B,6 | A,2 A,2 G,2 | (F,6 | G,6) | C,2 C2 B,2 | (A,3 G, A,2) | B,6- | %112
w: va- bo|ma- nus|me-|as, al- le-|lu-||ia, al- le-|lu- * *|ia,|
!ff! B,2 B,,2 B,,2 | (C,4 ^C,2 | D,6) | A,,2 A,,2 B,,2 | (C,6- | C,6- | C,4 ^C,2) | D,2 =C,2 B,,2 | %120
w: _ al- le-|lu- *||ia, al- le-|lu-|||ia, al- le-|
 (A,,4 D,C, | B,,6 | F,6) | F,6- | F,2 z2 z2 |] %125
w: lu- * *|||ia.|_|

